app/img/icons/ic--bike.svg

<svg xmlns="http://www.w3.org/2000/svg" preserveAspectRatio="xMidYMid" width="29.85" height="19.031" viewBox="0 0 29.85 19.031"><defs><style>.cls-1{fill:#fff;fill-rule:evenodd}</style></defs><path d="M21.258 2.178v2.83c0 .097 0 .41.034.862a6.212 6.212 0 0 1 2.06-.33c1.79 0 3.413.749 4.59 1.968a6.823 6.823 0 0 1 1.916 4.77 6.817 6.817 0 0 1-1.916 4.763c-1.177 1.228-2.8 1.977-4.59 1.977a6.353 6.353 0 0 1-4.607-1.977 6.842 6.842 0 0 1-1.909-4.692 2.025 2.025 0 0 1-.563 1.323 1.712 1.712 0 0 1-.63.435v1.359h.336c.395 0 .714.34.714.749 0 .4-.319.731-.714.731h-2.093a.73.73 0 0 1-.714-.731c0-.409.328-.749.714-.749h.328v-1.359a1.868 1.868 0 0 1-.631-.435l-.033-.053a1.982 1.982 0 0 1-.53-1.27c-.017 1.828-.731 3.492-1.908 4.692l-.034.044a6.334 6.334 0 0 1-9.154-.044h-.017a6.853 6.853 0 0 1-1.892-4.763c0-1.862.716-3.552 1.901-4.77l.05-.044A6.356 6.356 0 0 1 6.513 5.54c.984 0 1.926.217 2.75.627l.79-1.219L8.658 2.44H7.136a.72.72 0 0 1-.715-.732c0-.4.311-.74.715-.74h4.547c.387 0 .699.34.699.74 0 .401-.312.732-.699.732h-1.395l1.009 1.794h8.541V2.109c.016-.557.243-1.08.614-1.462.386-.384.916-.645 1.487-.645h.824c.564 0 1.093.261 1.48.645.386.391.605.931.605 1.531 0 .61-.219 1.133-.605 1.533l-.051.044a2.043 2.043 0 0 1-1.429.592.727.727 0 0 1-.715-.74.73.73 0 0 1 .715-.731.723.723 0 0 0 .454-.175l.017-.035a.71.71 0 0 0 .202-.488.787.787 0 0 0-.202-.504.75.75 0 0 0-.471-.192h-.824a.766.766 0 0 0-.478.192.765.765 0 0 0-.203.487v.017zm.177 5.208c.135 1.062.387 2.298.807 3.273a1.916 1.916 0 0 1 1.11-.348c.513 0 .991.209 1.337.557v.018c.344.357.563.835.563 1.392 0 .541-.219 1.038-.563 1.394a1.898 1.898 0 0 1-1.337.574 1.887 1.887 0 0 1-1.346-.574 1.964 1.964 0 0 1-.571-1.394v-.069c-.689-1.131-1.076-2.655-1.311-4.022-.118.104-.244.209-.337.322l-.033.044a5.294 5.294 0 0 0-1.505 3.725c0 1.455.571 2.77 1.505 3.718.916.95 2.185 1.551 3.598 1.551 1.386 0 2.673-.601 3.589-1.551v.01-.01c.933-.948 1.488-2.263 1.488-3.718 0-1.462-.555-2.768-1.488-3.725a4.972 4.972 0 0 0-3.589-1.542c-.69 0-1.329.131-1.917.375zm-1.496-.836a8.942 8.942 0 0 1-.076-.836h-7.759l.841 1.497a.765.765 0 0 1-.253 1.011.712.712 0 0 1-.975-.279l-.874-1.568-.37.541c.235.191.454.383.639.592a6.849 6.849 0 0 1 1.908 4.701c.017-.523.244-.992.563-1.341.177-.174.395-.313.631-.426V9.075h-.328c-.386 0-.714-.331-.714-.74 0-.401.328-.74.714-.74h2.093c.395 0 .714.339.714.74 0 .409-.319.74-.714.74h-.336v1.367c.244.113.462.252.63.426l.051.071c.294.321.487.765.512 1.253a6.823 6.823 0 0 1 1.909-4.684l.05-.044a5.34 5.34 0 0 1 1.144-.914zM9.699 8.152l-1.79 2.787c.328.347.513.818.513 1.339 0 .541-.219 1.038-.555 1.394a1.89 1.89 0 0 1-1.354.574 1.898 1.898 0 0 1-1.344-.574l-.042-.053a1.96 1.96 0 0 1-.505-1.341c0-.557.202-1.035.547-1.41a1.887 1.887 0 0 1 1.344-.557h.11l1.85-2.908a5.152 5.152 0 0 0-1.96-.392A4.99 4.99 0 0 0 2.95 8.509l-.034.044a5.354 5.354 0 0 0-1.488 3.725c0 1.455.571 2.77 1.488 3.718v.01c.933.94 2.193 1.541 3.597 1.541a4.958 4.958 0 0 0 3.574-1.507l.033-.044c.925-.948 1.48-2.263 1.48-3.718 0-1.462-.555-2.768-1.48-3.725v-.01c-.143-.13-.269-.27-.421-.391zm-2.84 3.761a.475.475 0 0 0-.346-.139.477.477 0 0 0-.335.139.505.505 0 0 0-.143.365c0 .123.05.245.109.332l.034.035a.494.494 0 0 0 .335.121.436.436 0 0 0 .346-.139.51.51 0 0 0 .15-.349.593.593 0 0 0-.15-.365zm16.821 0a.449.449 0 0 0-.328-.139.519.519 0 0 0-.353.139.575.575 0 0 0-.143.365c0 .141.05.262.143.349v.018a.523.523 0 0 0 .353.121.464.464 0 0 0 .328-.121.559.559 0 0 0 .159-.367c0-.156-.067-.261-.159-.365zm-8.398 0a.496.496 0 0 0-.699 0c-.167.192-.185.506-.024.697l.024.035a.498.498 0 0 0 .699 0 .593.593 0 0 0 .016-.714l-.016-.018z" class="cls-1"/></svg>

<svg xmlns="http://www.w3.org/2000/svg" xmlns:xlink="http://www.w3.org/1999/xlink" preserveAspectRatio="xMidYMid" width="29.85" height="19.031" viewBox="0 0 29.85 19.031">
  <defs>
    <style>
      .cls-1 {
        fill: #fff;
        fill-rule: evenodd;
      }
    </style>
  </defs>
  <path d="M21.258,2.178 L21.258,2.196 L21.258,4.957 L21.258,4.974 L21.258,4.983 L21.258,4.991 L21.258,4.991 L21.258,5.008 C21.258,5.105 21.258,5.418 21.292,5.870 C21.939,5.644 22.629,5.540 23.352,5.540 C25.142,5.540 26.765,6.289 27.942,7.508 C29.127,8.726 29.858,10.416 29.858,12.278 C29.858,14.134 29.127,15.823 27.942,17.041 C26.765,18.269 25.142,19.018 23.352,19.018 C21.553,19.018 19.921,18.269 18.745,17.041 C17.585,15.841 16.853,14.177 16.836,12.349 C16.820,12.863 16.601,13.323 16.273,13.672 L16.273,13.672 C16.105,13.864 15.887,14.003 15.643,14.107 L15.643,15.466 L15.979,15.466 C16.374,15.466 16.693,15.806 16.693,16.215 C16.693,16.615 16.374,16.946 15.979,16.946 L13.886,16.946 C13.500,16.946 13.172,16.615 13.172,16.215 C13.172,15.806 13.500,15.466 13.886,15.466 L14.214,15.466 L14.214,14.107 C13.978,14.003 13.760,13.864 13.583,13.672 L13.550,13.619 C13.239,13.281 13.037,12.836 13.020,12.349 C13.003,14.177 12.289,15.841 11.112,17.041 L11.078,17.085 C9.902,18.287 8.304,19.018 6.513,19.018 C4.731,19.018 3.100,18.269 1.924,17.041 L1.916,17.041 L1.907,17.041 C0.731,15.814 0.015,14.134 0.015,12.278 C0.015,10.416 0.731,8.726 1.916,7.508 L1.966,7.464 C3.135,6.271 4.749,5.540 6.513,5.540 C7.497,5.540 8.439,5.757 9.263,6.167 L10.053,4.948 L8.658,2.440 L7.136,2.440 C6.732,2.440 6.421,2.109 6.421,1.708 C6.421,1.308 6.732,0.968 7.136,0.968 L11.683,0.968 C12.070,0.968 12.382,1.308 12.382,1.708 C12.382,2.109 12.070,2.440 11.683,2.440 L10.288,2.440 L11.297,4.234 L19.838,4.234 L19.838,2.196 L19.838,2.178 L19.838,2.161 L19.838,2.161 L19.838,2.144 L19.838,2.109 C19.854,1.552 20.081,1.029 20.452,0.647 L20.452,0.647 C20.838,0.263 21.368,0.002 21.939,0.002 L22.763,0.002 C23.327,0.002 23.856,0.263 24.243,0.647 C24.629,1.038 24.848,1.578 24.848,2.178 C24.848,2.788 24.629,3.311 24.243,3.711 L24.192,3.755 C23.823,4.120 23.310,4.347 22.763,4.347 C22.376,4.347 22.048,4.025 22.048,3.607 C22.048,3.206 22.376,2.876 22.763,2.876 C22.932,2.876 23.091,2.805 23.217,2.701 L23.234,2.666 C23.352,2.544 23.436,2.370 23.436,2.178 C23.436,1.987 23.352,1.813 23.234,1.674 C23.108,1.570 22.948,1.482 22.763,1.482 L21.939,1.482 C21.754,1.482 21.586,1.570 21.461,1.674 C21.351,1.804 21.258,1.970 21.258,2.161 L21.258,2.178 L21.258,2.178 ZM21.435,7.386 L21.435,7.386 C21.570,8.448 21.822,9.684 22.242,10.659 C22.561,10.433 22.948,10.311 23.352,10.311 C23.865,10.311 24.343,10.520 24.689,10.868 L24.689,10.886 C25.033,11.243 25.252,11.721 25.252,12.278 C25.252,12.819 25.033,13.316 24.689,13.672 C24.343,14.021 23.865,14.246 23.352,14.246 C22.830,14.246 22.343,14.021 22.006,13.672 L22.006,13.672 C21.645,13.306 21.435,12.819 21.435,12.278 L21.435,12.209 C20.746,11.078 20.359,9.554 20.124,8.187 C20.006,8.291 19.880,8.396 19.787,8.509 L19.754,8.553 C18.820,9.510 18.249,10.816 18.249,12.278 C18.249,13.733 18.820,15.048 19.754,15.996 C20.670,16.946 21.939,17.547 23.352,17.547 C24.738,17.547 26.025,16.946 26.941,15.996 L26.941,16.006 L26.941,15.996 C27.874,15.048 28.429,13.733 28.429,12.278 C28.429,10.816 27.874,9.510 26.941,8.553 C26.025,7.595 24.738,7.011 23.352,7.011 C22.662,7.011 22.023,7.142 21.435,7.386 L21.435,7.386 ZM19.939,6.550 L19.939,6.550 C19.896,6.227 19.871,5.940 19.863,5.714 L12.104,5.714 L12.945,7.211 C13.146,7.559 13.020,8.012 12.692,8.222 C12.348,8.413 11.919,8.300 11.717,7.943 L10.843,6.375 L10.473,6.916 C10.708,7.107 10.927,7.299 11.112,7.508 C12.272,8.709 13.003,10.372 13.020,12.209 C13.037,11.686 13.264,11.217 13.583,10.868 C13.760,10.694 13.978,10.555 14.214,10.442 L14.214,9.075 L13.886,9.075 C13.500,9.075 13.172,8.744 13.172,8.335 C13.172,7.934 13.500,7.595 13.886,7.595 L15.979,7.595 C16.374,7.595 16.693,7.934 16.693,8.335 C16.693,8.744 16.374,9.075 15.979,9.075 L15.643,9.075 L15.643,10.442 C15.887,10.555 16.105,10.694 16.273,10.868 L16.324,10.939 C16.618,11.260 16.811,11.704 16.836,12.192 C16.853,10.363 17.585,8.709 18.745,7.508 L18.795,7.464 C19.132,7.107 19.518,6.802 19.939,6.550 L19.939,6.550 ZM9.699,8.152 L9.699,8.152 L7.909,10.939 C8.237,11.286 8.422,11.757 8.422,12.278 C8.422,12.819 8.203,13.316 7.867,13.672 C7.514,14.021 7.060,14.246 6.513,14.246 C6.001,14.246 5.505,14.021 5.169,13.672 L5.127,13.619 C4.807,13.272 4.622,12.801 4.622,12.278 C4.622,11.721 4.824,11.243 5.169,10.868 C5.505,10.520 6.001,10.311 6.513,10.311 L6.623,10.311 L8.473,7.403 C7.884,7.159 7.212,7.011 6.513,7.011 C5.127,7.011 3.874,7.577 2.950,8.509 L2.916,8.553 C1.999,9.510 1.428,10.816 1.428,12.278 C1.428,13.733 1.999,15.048 2.916,15.996 L2.916,16.006 C3.849,16.946 5.109,17.547 6.513,17.547 C7.909,17.547 9.170,16.981 10.087,16.040 L10.120,15.996 C11.045,15.048 11.600,13.733 11.600,12.278 C11.600,10.816 11.045,9.510 10.120,8.553 L10.120,8.543 L10.120,8.543 C9.977,8.413 9.851,8.273 9.699,8.152 L9.699,8.152 ZM6.859,11.913 L6.859,11.913 C6.774,11.827 6.656,11.774 6.513,11.774 C6.379,11.774 6.270,11.827 6.178,11.913 C6.085,12.017 6.035,12.122 6.035,12.278 C6.035,12.401 6.085,12.523 6.144,12.610 L6.178,12.645 C6.270,12.724 6.379,12.766 6.513,12.766 C6.656,12.766 6.774,12.724 6.859,12.627 C6.942,12.540 7.009,12.419 7.009,12.278 C7.009,12.139 6.942,12.017 6.859,11.913 L6.859,11.913 ZM23.680,11.913 L23.680,11.913 C23.604,11.827 23.477,11.774 23.352,11.774 C23.217,11.774 23.091,11.827 22.999,11.913 C22.914,12.017 22.856,12.139 22.856,12.278 C22.856,12.419 22.906,12.540 22.999,12.627 L22.999,12.645 C23.082,12.724 23.217,12.766 23.352,12.766 C23.477,12.766 23.604,12.724 23.680,12.645 C23.772,12.540 23.839,12.419 23.839,12.278 C23.839,12.122 23.772,12.017 23.680,11.913 L23.680,11.913 ZM15.282,11.913 L15.282,11.913 C15.097,11.721 14.769,11.721 14.583,11.913 C14.416,12.105 14.398,12.419 14.559,12.610 L14.583,12.645 C14.769,12.836 15.097,12.836 15.282,12.645 C15.441,12.444 15.458,12.139 15.298,11.931 L15.282,11.913 L15.282,11.913 Z" class="cls-1"/>
</svg>
